app/dist/common/images/century-communities.svg

<svg height="18" viewBox="0 0 18 18" width="18" xmlns="http://www.w3.org/2000/svg"><path d="m0 0h18v18h-18z" fill="#420a51"/><path d="m4.71 12-.71 1h10l-.76-1h-8.54zm8.19-3.27.47.57v1.7h-.46v-2.27zm-1.24-1.51.46.57v3.21h-.46zm-1.26-1.52.47.57v4.73h-.46v-5.3zm-1.63-1.42.23-.28.23.28v6.72h-.46zm-1.64 1.99.46-.57v5.3h-.46zm-1.25 1.52.46-.57v3.78h-.46zm-1.25 1.51.46-.57v2.27h-.46z" fill="#fff"/></svg>

<!-- by TradingView --><svg xmlns="http://www.w3.org/2000/svg" width="18" height="18" viewBox="0 0 18 18"><path fill="#420A51" d="M0 0h18v18H0z"/><path d="M4.71 12 4 13h10l-.76-1H4.7ZM12.9 8.73l.47.57V11h-.46V8.73ZM11.66 7.22l.46.57V11h-.46V7.22ZM10.4 5.7l.47.57V11h-.46V5.7ZM8.77 4.28 9 4l.23.28V11h-.46V4.28ZM7.13 6.27l.46-.57V11h-.46V6.27ZM5.88 7.79l.46-.57V11h-.46V7.79ZM4.63 9.3l.46-.57V11h-.46V9.3Z" fill="#fff"/></svg>
